usr/share/icons/biglinux-icons-material/scalable/apps/falkon.svg

<?xml version="1.0" encoding="UTF-8" standalone="no"?>
<svg
   width="24"
   height="24"
   viewBox="0 0 24 24"
   fill="none"
   version="1.1"
   id="svg329"
   sodipodi:docname="falkon.svg"
   inkscape:export-filename="falkon.pdf"
   inkscape:export-xdpi="512"
   inkscape:export-ydpi="512"
   inkscape:version="1.2.2 (b0a8486541, 2022-12-01)"
   xml:space="preserve"
   xmlns:inkscape="http://www.inkscape.org/namespaces/inkscape"
   xmlns:sodipodi="http://sodipodi.sourceforge.net/DTD/sodipodi-0.dtd"
   xmlns:xlink="http://www.w3.org/1999/xlink"
   xmlns="http://www.w3.org/2000/svg"
   xmlns:svg="http://www.w3.org/2000/svg"><sodipodi:namedview
     id="namedview331"
     pagecolor="#ffffff"
     bordercolor="#000000"
     borderopacity="0.25"
     inkscape:showpageshadow="2"
     inkscape:pageopacity="0.0"
     inkscape:pagecheckerboard="0"
     inkscape:deskcolor="#d1d1d1"
     showgrid="false"
     inkscape:zoom="12.49222"
     inkscape:cx="5.7635873"
     inkscape:cy="13.68852"
     inkscape:window-width="2560"
     inkscape:window-height="998"
     inkscape:window-x="1680"
     inkscape:window-y="0"
     inkscape:window-maximized="1"
     inkscape:current-layer="svg329" /><defs
     id="defs327"><radialGradient
       id="paint0_radial_0_1"
       cx="0"
       cy="0"
       r="1"
       gradientUnits="userSpaceOnUse"
       gradientTransform="matrix(0,11,-11,0,11.999988,1.0000149)"><stop
         stop-color="#6EBBF7"
         id="stop322"
         offset="0"
         style="stop-color:#abb8ff;stop-opacity:1;" /><stop
         offset="1"
         stop-color="#2196F3"
         id="stop324"
         style="stop-color:#bf80ff;stop-opacity:1;" /></radialGradient><radialGradient
       fx="0"
       fy="0"
       cx="0"
       cy="0"
       r="1"
       gradientUnits="userSpaceOnUse"
       gradientTransform="matrix(0,16.5,-16.5,0,8.999651,0.749985)"
       spreadMethod="pad"
       id="radialGradient868-3"><stop
         style="stop-opacity:1;stop-color:#fafafa"
         offset="0"
         id="stop864-6" /><stop
         style="stop-opacity:1;stop-color:#c0c0c0"
         offset="1"
         id="stop866-7" /></radialGradient><linearGradient
       xlink:href="#a"
       gradientUnits="userSpaceOnUse"
       gradientTransform="matrix(0.37868,0,0,0.26203,4.272,4.257)"
       y2="56.09"
       y1="81.098"
       x2="95.398003"
       x1="49.298"
       id="e" /><linearGradient
       id="a"><stop
         offset="0"
         stop-color="#fff"
         id="stop1968" /><stop
         offset="1"
         stop-color="#dadada"
         id="stop1970" /></linearGradient><linearGradient
       xlink:href="#a"
       gradientUnits="userSpaceOnUse"
       gradientTransform="matrix(0.35013,0,0,0.2834,4.272,4.257)"
       y2="77.337997"
       y1="119.444"
       x2="27.009001"
       x1="61.021"
       id="f" /><linearGradient
       gradientUnits="userSpaceOnUse"
       gradientTransform="matrix(0.42584,0,0,0.23301,4.272,4.257)"
       y2="58.523998"
       y1="37.283001"
       x2="39.143002"
       x1="87.486"
       id="g"><stop
         offset="0"
         stop-color="#d0d0d0"
         id="stop1975" /><stop
         offset="1"
         stop-color="#fff"
         id="stop1977" /></linearGradient><linearGradient
       xlink:href="#b"
       gradientUnits="userSpaceOnUse"
       gradientTransform="matrix(0.36573,0,0,0.2713,4.272,4.257)"
       y2="160.96001"
       y1="94.823997"
       x2="-14.568"
       x1="39.132"
       id="h" /><linearGradient
       id="b"><stop
         offset="0"
         stop-color="#ffdc68"
         id="stop1980" /><stop
         offset="1"
         stop-color="#ce4300"
         id="stop1982" /></linearGradient><linearGradient
       xlink:href="#b"
       gradientUnits="userSpaceOnUse"
       gradientTransform="matrix(0.67462,0,0,0.14709,4.272,4.257)"
       y2="58.196999"
       y1="54.424"
       x2="12.066"
       x1="24.438999"
       id="i" /><linearGradient
       xlink:href="#b"
       gradientUnits="userSpaceOnUse"
       gradientTransform="matrix(0.47125,0,0,0.21056,4.272,4.257)"
       y2="161.326"
       y1="91.75"
       x2="-13.135"
       x1="32.174"
       id="j" /><linearGradient
       gradientTransform="matrix(0.47086277,0,0,0.47086277,-27.677484,1.9075178)"
       gradientUnits="userSpaceOnUse"
       y2="44"
       y1="24"
       x2="44"
       x1="24"
       id="d"><stop
         offset="0"
         stop-color="#292c2f"
         id="stop1958" /><stop
         offset="1"
         stop-opacity="0"
         id="stop1960" /></linearGradient><linearGradient
       gradientUnits="userSpaceOnUse"
       gradientTransform="matrix(0.14931529,0,0,0.14733296,-25.665958,3.9119807)"
       y2="126.119"
       y1="-34.772999"
       x2="-27.879999"
       x1="189.34399"
       id="c"><stop
         offset="0"
         stop-color="#d446ff"
         id="stop1963" /><stop
         offset="1"
         stop-color="#a0d8ff"
         id="stop1965" /></linearGradient><linearGradient
       inkscape:collect="always"
       xlink:href="#a"
       id="linearGradient6597"
       gradientUnits="userSpaceOnUse"
       gradientTransform="matrix(0.17830632,0,0,0.12338018,2.4080504,1.1858289)"
       x1="49.298"
       y1="81.098"
       x2="95.398003"
       y2="56.09" /><linearGradient
       inkscape:collect="always"
       xlink:href="#a"
       id="linearGradient6599"
       gradientUnits="userSpaceOnUse"
       gradientTransform="matrix(0.16486319,0,0,0.13344251,2.4080504,1.1858289)"
       x1="61.021"
       y1="119.444"
       x2="27.009001"
       y2="77.337997" /><linearGradient
       inkscape:collect="always"
       xlink:href="#g"
       id="linearGradient6601"
       gradientUnits="userSpaceOnUse"
       gradientTransform="matrix(0.20051221,0,0,0.10971574,2.4080504,1.1858289)"
       x1="87.486"
       y1="37.283001"
       x2="39.143002"
       y2="58.523998" /><linearGradient
       inkscape:collect="always"
       xlink:href="#b"
       id="linearGradient6603"
       gradientUnits="userSpaceOnUse"
       gradientTransform="matrix(0.17220865,0,0,0.12774507,2.4080504,1.1858289)"
       x1="39.132"
       y1="94.823997"
       x2="-14.568"
       y2="160.96001" /><linearGradient
       inkscape:collect="always"
       xlink:href="#b"
       id="linearGradient6605"
       gradientUnits="userSpaceOnUse"
       gradientTransform="matrix(0.31765346,0,0,0.06925921,2.4080504,1.1858289)"
       x1="24.438999"
       y1="54.424"
       x2="12.066"
       y2="58.196999" /><linearGradient
       inkscape:collect="always"
       xlink:href="#b"
       id="linearGradient6607"
       gradientUnits="userSpaceOnUse"
       gradientTransform="matrix(0.22189409,0,0,0.09914487,2.4080504,1.1858289)"
       x1="32.174"
       y1="91.75"
       x2="-13.135"
       y2="161.326" /><radialGradient
       fx="0"
       fy="0"
       cx="0"
       cy="0"
       r="1"
       gradientUnits="userSpaceOnUse"
       gradientTransform="matrix(0,8.25,-8.25,0,8.999991,0.750011)"
       spreadMethod="pad"
       id="radialGradient7062"><stop
         style="stop-opacity:1;stop-color:#abb8ff"
         offset="0"
         id="stop7058" /><stop
         style="stop-opacity:1;stop-color:#bf80ff"
         offset="1"
         id="stop7060" /></radialGradient><linearGradient
       x1="49.298"
       y1="81.098"
       x2="95.398003"
       y2="56.09"
       gradientUnits="userSpaceOnUse"
       gradientTransform="matrix(0.13373,0,0,0.0925351,1.806038,0.889372)"
       spreadMethod="pad"
       id="linearGradient7080"><stop
         style="stop-opacity:1;stop-color:#ffffff"
         offset="0"
         id="stop7076" /><stop
         style="stop-opacity:1;stop-color:#dadada"
         offset="1"
         id="stop7078" /></linearGradient><linearGradient
       x1="61.021"
       y1="119.444"
       x2="27.009001"
       y2="77.337997"
       gradientUnits="userSpaceOnUse"
       gradientTransform="matrix(0.123647,0,0,0.100082,1.806038,0.889372)"
       spreadMethod="pad"
       id="linearGradient7098"><stop
         style="stop-opacity:1;stop-color:#ffffff"
         offset="0"
         id="stop7094" /><stop
         style="stop-opacity:1;stop-color:#dadada"
         offset="1"
         id="stop7096" /></linearGradient><linearGradient
       x1="87.486"
       y1="37.283001"
       x2="39.143002"
       y2="58.523998"
       gradientUnits="userSpaceOnUse"
       gradientTransform="matrix(0.150384,0,0,0.0822868,1.806038,0.889372)"
       spreadMethod="pad"
       id="linearGradient7116"><stop
         style="stop-opacity:1;stop-color:#d0d0d0"
         offset="0"
         id="stop7112" /><stop
         style="stop-opacity:1;stop-color:#ffffff"
         offset="1"
         id="stop7114" /></linearGradient><linearGradient
       x1="39.132"
       y1="94.823997"
       x2="-14.568"
       y2="160.96001"
       gradientUnits="userSpaceOnUse"
       gradientTransform="matrix(0.129156,0,0,0.0958088,1.806038,0.889372)"
       spreadMethod="pad"
       id="linearGradient7136"><stop
         style="stop-opacity:1;stop-color:#ffdc68"
         offset="0"
         id="stop7132" /><stop
         style="stop-opacity:1;stop-color:#ce4300"
         offset="1"
         id="stop7134" /></linearGradient><linearGradient
       x1="24.438999"
       y1="54.424"
       x2="12.066"
       y2="58.196999"
       gradientUnits="userSpaceOnUse"
       gradientTransform="matrix(0.23824,0,0,0.0519444,1.806038,0.889372)"
       spreadMethod="pad"
       id="linearGradient7154"><stop
         style="stop-opacity:1;stop-color:#ffdc68"
         offset="0"
         id="stop7150" /><stop
         style="stop-opacity:1;stop-color:#ce4300"
         offset="1"
         id="stop7152" /></linearGradient><linearGradient
       x1="32.174"
       y1="91.75"
       x2="-13.135"
       y2="161.326"
       gradientUnits="userSpaceOnUse"
       gradientTransform="matrix(0.166421,0,0,0.0743587,1.806038,0.889372)"
       spreadMethod="pad"
       id="linearGradient7172"><stop
         style="stop-opacity:1;stop-color:#ffdc68"
         offset="0"
         id="stop7168" /><stop
         style="stop-opacity:1;stop-color:#ce4300"
         offset="1"
         id="stop7170" /></linearGradient><radialGradient
       fx="0"
       fy="0"
       cx="0"
       cy="0"
       r="1"
       gradientUnits="userSpaceOnUse"
       gradientTransform="matrix(0,8.25,-8.25,0,8.999991,0.750011)"
       spreadMethod="pad"
       id="radialGradient7062-3"><stop
         style="stop-opacity:1;stop-color:#abb8ff"
         offset="0"
         id="stop7058-6" /><stop
         style="stop-opacity:1;stop-color:#bf80ff"
         offset="1"
         id="stop7060-7" /></radialGradient></defs><g
     id="g7048"
     transform="matrix(1.3333333,0,0,1.3333333,-4.5225532e-4,-3.504174e-5)"><g
       id="g7050"><g
         id="g7056"><path
           d="m 7.195,0.836 c 0.09,0 0.176,-0.012 0.258,-0.035 1.078,-0.071 2.156,-0.067 3.231,0.008 0.976,0.078 1.921,0.289 2.836,0.636 1.519,0.625 2.558,1.711 3.121,3.254 0.316,0.93 0.507,1.887 0.566,2.867 0.078,1.235 0.051,2.465 -0.086,3.696 -0.105,0.863 -0.328,1.691 -0.672,2.488 -0.637,1.383 -1.672,2.336 -3.101,2.859 C 12.191,17 11,17.207 9.773,17.227 8.398,17.301 7.035,17.195 5.684,16.918 3.203,16.367 1.668,14.852 1.09,12.375 0.844,11.262 0.73,10.133 0.754,8.992 0.727,7.781 0.855,6.582 1.141,5.402 1.75,3.09 3.219,1.656 5.547,1.102 6.09,0.969 6.641,0.879 7.195,0.836 Z"
           style="fill:url(#radialGradient7062-3);fill-rule:evenodd;stroke:none"
           id="path7064" /></g></g></g><path
     fill="url(#e)"
     d="m 5.6993813,19.560308 c 0,0 2.9414799,-10.3415599 14.3919217,-9.02644 0,0 -7.277185,-4.3404133 -14.3415393,1.510999 -2.0868639,4.855537 -0.050382,7.51497 -0.050382,7.51497 z"
     id="path6581"
     style="fill:url(#linearGradient6597);fill-rule:evenodd;stroke-width:1.48793" /><path
     fill="url(#f)"
     d="m 6.5751861,18.252251 c 0,0 3.0690837,-7.434924 11.2620959,-7.565353 -6.227631,1.524183 0.01036,6.928275 0.01036,6.928275 0,0 -4.926166,4.484027 -11.2724549,0.637078 z"
     id="path6583"
     style="fill:url(#linearGradient6599);fill-rule:evenodd;stroke-width:1.48793" /><path
     fill="url(#g)"
     d="m 4.8659542,12.552928 c 0,0 6.1306338,-6.7747743 15.2856188,-2.093927 C 19.987713,9.1857877 18.904728,7.7487145 16.963832,7.3381222 16.534405,7.132826 13.387629,2.2466828 6.623685,5.0591462 8.7044277,5.2220648 9.5971835,5.5149414 9.6480367,5.7371887 6.0492324,5.1156498 4.9827282,10.260297 4.8659542,12.552928 Z"
     id="path6585"
     style="fill:url(#linearGradient6601);fill-rule:evenodd;stroke-width:1.48793" /><path
     fill="#202020"
     d="m 13.658375,6.8055763 c 0,0 1.568444,-0.5640936 1.772798,1.1145323 C 13.884389,8.066076 13.658375,6.8055763 13.658375,6.8055763 Z"
     id="path6587"
     style="fill-rule:evenodd;stroke-width:1.48793" /><path
     fill="url(#h)"
     d="m 5.6584163,19.593268 c 0,0 2.6810927,-8.787241 11.6463207,-9.127675 0,0 -7.274831,-1.3334836 -12.4128853,6.84352 -0.028252,1.156909 0.7665646,2.284626 0.7665646,2.284626 z"
     id="path6589"
     style="fill:url(#linearGradient6603);fill-rule:evenodd;stroke-width:1.48793" /><path
     fill="url(#i)"
     d="m 6.6307479,5.060088 c 0,0 2.2365983,0.1308998 3.0347107,0.682751 C 9.9988295,5.6736222 10.282289,5.444312 10.329846,5.13213 10.044032,5.0130017 7.4260352,4.79923 6.6312188,5.060088 Z"
     id="path6591"
     style="fill:url(#linearGradient6605);fill-rule:evenodd;stroke-width:1.48793" /><path
     fill="url(#j)"
     d="m 4.8862013,12.564699 c 0,0 2.7997502,-3.3784404 8.4510457,-3.7819698 0,0 -7.6938983,0.3493802 -8.3389804,2.5318288 -0.1798695,0.525012 -0.1120653,1.250141 -0.1120653,1.250141 z"
     id="path6593"
     style="fill:url(#linearGradient6607);fill-rule:evenodd;stroke-width:1.48793" /></svg>

<svg xmlns="http://www.w3.org/2000/svg" xmlns:xlink="http://www.w3.org/1999/xlink" xml:space="preserve" width="24" height="24" fill="none"><defs><linearGradient xlink:href="#a" id="e" x1="49.298" x2="95.398" y1="81.098" y2="56.09" gradientTransform="matrix(.37868 0 0 .26203 4.272 4.257)" gradientUnits="userSpaceOnUse"/><linearGradient id="a"><stop offset="0" stop-color="#fff"/><stop offset="1" stop-color="#dadada"/></linearGradient><linearGradient xlink:href="#a" id="g" x1="61.021" x2="27.009" y1="119.444" y2="77.338" gradientTransform="matrix(.35013 0 0 .2834 4.272 4.257)" gradientUnits="userSpaceOnUse"/><linearGradient id="c" x1="87.486" x2="39.143" y1="37.283" y2="58.524" gradientTransform="matrix(.42584 0 0 .23301 4.272 4.257)" gradientUnits="userSpaceOnUse"><stop offset="0" stop-color="#d0d0d0"/><stop offset="1" stop-color="#fff"/></linearGradient><linearGradient xlink:href="#b" id="j" x1="39.132" x2="-14.568" y1="94.824" y2="160.96" gradientTransform="matrix(.36573 0 0 .2713 4.272 4.257)" gradientUnits="userSpaceOnUse"/><linearGradient id="b"><stop offset="0" stop-color="#ffdc68"/><stop offset="1" stop-color="#ce4300"/></linearGradient><linearGradient xlink:href="#b" id="l" x1="24.439" x2="12.066" y1="54.424" y2="58.197" gradientTransform="matrix(.67462 0 0 .14709 4.272 4.257)" gradientUnits="userSpaceOnUse"/><linearGradient xlink:href="#b" id="n" x1="32.174" x2="-13.135" y1="91.75" y2="161.326" gradientTransform="matrix(.47125 0 0 .21056 4.272 4.257)" gradientUnits="userSpaceOnUse"/><linearGradient xlink:href="#a" id="f" x1="49.298" x2="95.398" y1="81.098" y2="56.09" gradientTransform="matrix(.1783 0 0 .12338 2.408 1.186)" gradientUnits="userSpaceOnUse"/><linearGradient xlink:href="#a" id="h" x1="61.021" x2="27.009" y1="119.444" y2="77.338" gradientTransform="matrix(.16486 0 0 .13344 2.408 1.186)" gradientUnits="userSpaceOnUse"/><linearGradient xlink:href="#c" id="i" x1="87.486" x2="39.143" y1="37.283" y2="58.524" gradientTransform="matrix(.20051 0 0 .10972 2.408 1.186)" gradientUnits="userSpaceOnUse"/><linearGradient xlink:href="#b" id="k" x1="39.132" x2="-14.568" y1="94.824" y2="160.96" gradientTransform="matrix(.1722 0 0 .12775 2.408 1.186)" gradientUnits="userSpaceOnUse"/><linearGradient xlink:href="#b" id="m" x1="24.439" x2="12.066" y1="54.424" y2="58.197" gradientTransform="matrix(.31765 0 0 .06926 2.408 1.186)" gradientUnits="userSpaceOnUse"/><linearGradient xlink:href="#b" id="o" x1="32.174" x2="-13.135" y1="91.75" y2="161.326" gradientTransform="matrix(.2219 0 0 .09914 2.408 1.186)" gradientUnits="userSpaceOnUse"/><radialGradient id="d" cx="0" cy="0" r="1" fx="0" fy="0" gradientTransform="matrix(0 8.25 -8.25 0 9 .75)" gradientUnits="userSpaceOnUse" spreadMethod="pad"><stop offset="0" style="stop-opacity:1;stop-color:#abb8ff"/><stop offset="1" style="stop-opacity:1;stop-color:#bf80ff"/></radialGradient></defs><path d="M7.195.836c.09 0 .176-.012.258-.035a23.86 23.86 0 0 1 3.231.008 10.26 10.26 0 0 1 2.836.636c1.519.625 2.558 1.711 3.121 3.254.316.93.507 1.887.566 2.867a21.227 21.227 0 0 1-.086 3.696 8.976 8.976 0 0 1-.672 2.488c-.637 1.383-1.672 2.336-3.101 2.859a11.693 11.693 0 0 1-3.575.618 15.998 15.998 0 0 1-4.089-.309c-2.481-.551-4.016-2.066-4.594-4.543a14.244 14.244 0 0 1-.336-3.383c-.027-1.211.101-2.41.387-3.59.609-2.312 2.078-3.746 4.406-4.3A10.27 10.27 0 0 1 7.195.836Z" style="fill:url(#d);fill-rule:evenodd;stroke:none" transform="matrix(1.33333 0 0 1.33333 0 0)"/><path fill="url(#e)" d="M5.7 19.56S8.64 9.22 20.09 10.534c0 0-7.277-4.34-14.341 1.51C3.663 16.9 5.7 19.56 5.7 19.56z" style="fill:url(#f);fill-rule:evenodd;stroke-width:1.48793"/><path fill="url(#g)" d="M6.575 18.252s3.07-7.435 11.262-7.565c-6.227 1.524.01 6.928.01 6.928s-4.926 4.484-11.272.637z" style="fill:url(#h);fill-rule:evenodd;stroke-width:1.48793"/><path fill="url(#c)" d="M4.866 12.553s6.13-6.775 15.286-2.094c-.164-1.273-1.247-2.71-3.188-3.12-.43-.206-3.576-5.092-10.34-2.28 2.08.163 2.973.456 3.024.678-3.599-.621-4.665 4.523-4.782 6.816Z" style="fill:url(#i);fill-rule:evenodd;stroke-width:1.48793"/><path fill="#202020" d="M13.658 6.806s1.569-.565 1.773 1.114c-1.547.146-1.773-1.114-1.773-1.114Z" style="fill-rule:evenodd;stroke-width:1.48793"/><path fill="url(#j)" d="M5.658 19.593s2.682-8.787 11.647-9.127c0 0-7.275-1.334-12.413 6.843-.028 1.157.766 2.285.766 2.285z" style="fill:url(#k);fill-rule:evenodd;stroke-width:1.48793"/><path fill="url(#l)" d="M6.63 5.06s2.237.131 3.035.683c.334-.07.617-.299.665-.61-.286-.12-2.904-.334-3.699-.073Z" style="fill:url(#m);fill-rule:evenodd;stroke-width:1.48793"/><path fill="url(#n)" d="M4.886 12.565s2.8-3.379 8.451-3.782c0 0-7.694.35-8.339 2.532-.18.525-.112 1.25-.112 1.25z" style="fill:url(#o);fill-rule:evenodd;stroke-width:1.48793"/></svg>
